app/img/icons/confession.svg

<svg width="50" height="50" viewBox="0 0 50 50" fill="none" xmlns="http://www.w3.org/2000/svg">
<path d="M21.2685 15.7833L25.0001 13.8215L28.7317 15.7833C28.9253 15.8851 29.1434 15.9306 29.3615 15.9149C29.5796 15.8991 29.7889 15.8227 29.9659 15.6942C30.1428 15.5657 30.2802 15.3902 30.3626 15.1877C30.445 14.9851 30.4691 14.7636 30.4321 14.5481L29.7192 10.3927L32.7384 7.44991C32.8949 7.29728 33.0057 7.10389 33.0581 6.89161C33.1105 6.67932 33.1025 6.45661 33.0349 6.24866C32.9673 6.0407 32.8429 5.8558 32.6758 5.71485C32.5086 5.5739 32.3053 5.48254 32.089 5.45108L27.9168 4.84483L26.051 1.06446C25.9542 0.868366 25.8045 0.70326 25.6188 0.587813C25.4331 0.472365 25.2188 0.411182 25.0001 0.411182C24.7814 0.411182 24.5671 0.472365 24.3814 0.587813C24.1957 0.70326 24.046 0.868366 23.9492 1.06446L22.0834 4.84483L17.9112 5.45108C17.6949 5.48254 17.4916 5.5739 17.3244 5.71485C17.1573 5.8558 17.0329 6.0407 16.9653 6.24866C16.8977 6.45661 16.8897 6.67932 16.9421 6.89161C16.9945 7.10389 17.1052 7.29728 17.2618 7.44991L20.2808 10.3927L19.5679 14.5481C19.5309 14.7636 19.555 14.9851 19.6374 15.1877C19.7198 15.3902 19.8572 15.5657 20.0341 15.6942C20.2111 15.8227 20.4204 15.8991 20.6385 15.9149C20.8566 15.9306 21.0747 15.8851 21.2683 15.7833H21.2685Z" fill="#BE9230"/>
<path d="M49.1244 17.8117L45.7515 15.2824L45.9229 11.0698C45.9318 10.8513 45.8794 10.6346 45.7715 10.4443C45.6637 10.254 45.5048 10.0977 45.3127 9.99305C45.1207 9.88838 44.9032 9.83956 44.6848 9.85209C44.4665 9.86462 44.256 9.93801 44.0772 10.0639L40.6297 12.4902L36.6763 11.0254C36.4713 10.9494 36.2491 10.9324 36.0348 10.9761C35.8206 11.0198 35.6229 11.1226 35.464 11.2728C35.3052 11.4231 35.1915 11.6148 35.1359 11.8262C35.0803 12.0377 35.0849 12.2605 35.1493 12.4694L36.3914 16.4983L33.7768 19.8056C33.6412 19.9772 33.5562 20.1832 33.5316 20.4005C33.507 20.6178 33.5437 20.8376 33.6375 21.0351C33.7313 21.2326 33.8785 21.4 34.0624 21.5182C34.2463 21.6365 34.4597 21.7009 34.6783 21.7042L38.8938 21.7677L41.2313 25.2765C41.3382 25.4371 41.4832 25.5688 41.6533 25.6599C41.8234 25.751 42.0133 25.7987 42.2063 25.7987C42.2568 25.7986 42.3073 25.7954 42.3574 25.7889C42.5743 25.7608 42.779 25.6725 42.9483 25.5341C43.1176 25.3957 43.2447 25.2127 43.3155 25.0057L44.6786 21.0162L48.7379 19.8774C48.9484 19.8183 49.1382 19.7016 49.2859 19.5403C49.4335 19.3789 49.533 19.1796 49.5732 18.9646C49.6134 18.7497 49.5927 18.5278 49.5134 18.3241C49.4341 18.1203 49.2994 17.9428 49.1244 17.8116V17.8117Z" fill="#BE9230"/>
<path d="M15.3217 21.7043C15.5404 21.701 15.7537 21.6366 15.9377 21.5183C16.1216 21.4001 16.2688 21.2327 16.3626 21.0352C16.4564 20.8377 16.493 20.6179 16.4684 20.4006C16.4438 20.1833 16.3589 19.9773 16.2233 19.8057L13.6086 16.4984L14.8507 12.4695C14.9151 12.2606 14.9198 12.0377 14.8642 11.8263C14.8086 11.6148 14.695 11.4231 14.5361 11.2729C14.3772 11.1226 14.1795 11.0198 13.9653 10.9761C13.751 10.9323 13.5288 10.9494 13.3238 11.0254L9.37035 12.4902L5.92309 10.0639C5.74427 9.93801 5.53378 9.86462 5.31542 9.85209C5.09706 9.83956 4.87956 9.88838 4.68751 9.99305C4.49546 10.0977 4.33654 10.254 4.22871 10.4443C4.12089 10.6346 4.06847 10.8513 4.07738 11.0698L4.24877 15.2824L0.87582 17.8117C0.700894 17.9429 0.566159 18.1204 0.486851 18.3242C0.407543 18.5279 0.386824 18.7498 0.427037 18.9647C0.46725 19.1797 0.566791 19.379 0.714406 19.5404C0.86202 19.7017 1.05182 19.8184 1.26234 19.8775L5.32162 21.0163L6.68461 25.0058C6.75531 25.2127 6.8825 25.3957 7.05178 25.5341C7.22107 25.6725 7.4257 25.7608 7.64253 25.789C7.85937 25.8172 8.07976 25.7841 8.2788 25.6936C8.47783 25.603 8.64755 25.4586 8.76879 25.2766L11.1063 21.7678L15.3217 21.7043Z" fill="#BE9230"/>
<path d="M39.4531 33.9843C39.9728 33.9843 40.4777 33.8116 40.8886 33.4935C41.2994 33.1753 41.593 32.7296 41.723 32.2265C41.593 31.7234 41.2994 31.2778 40.8886 30.9596C40.4777 30.6414 39.9728 30.4688 39.4531 30.4687H30.8594V25.0976C30.8594 23.6365 30.8594 20.7235 27.0262 20.3515C26.9178 20.3414 26.8086 20.3539 26.7054 20.3884C26.6022 20.4229 26.5073 20.4786 26.4269 20.5519C26.3465 20.6252 26.2822 20.7145 26.2383 20.814C26.1944 20.9136 26.1718 21.0212 26.1719 21.13V26.439C26.1719 26.5836 26.1317 26.7253 26.056 26.8484L23.8281 30.4687H23.9258L20.7031 32.5733V47.6277C21.1778 47.9029 21.7169 48.0475 22.2656 48.0468H37.8906C38.4103 48.0468 38.9152 47.8741 39.3261 47.556C39.7369 47.2378 40.0305 46.7921 40.1605 46.289C40.0305 45.7859 39.7369 45.3403 39.3261 45.0221C38.9152 44.7039 38.4103 44.5313 37.8906 44.5312H35.5469V43.3593H38.6719C39.1915 43.3593 39.6965 43.1866 40.1073 42.8685C40.5182 42.5503 40.8117 42.1046 40.9418 41.6015C40.8117 41.0984 40.5182 40.6528 40.1073 40.3346C39.6965 40.0164 39.1915 39.8438 38.6719 39.8437H35.5469V38.6718H39.4531C39.9728 38.6718 40.4777 38.4991 40.8886 38.181C41.2994 37.8628 41.593 37.4171 41.723 36.914C41.593 36.4109 41.2994 35.9653 40.8886 35.6471C40.4777 35.3289 39.9728 35.1563 39.4531 35.1562H35.5469V33.9843H39.4531Z" fill="#0033A1"/>
<path d="M18.3594 30.4688H10.5469C10.2361 30.4688 9.93801 30.5922 9.71824 30.812C9.49847 31.0318 9.375 31.3298 9.375 31.6406V48.0469C9.375 48.3577 9.49847 48.6557 9.71824 48.8755C9.93801 49.0953 10.2361 49.2188 10.5469 49.2188H18.3594C18.6702 49.2188 18.9682 49.0953 19.188 48.8755C19.4078 48.6557 19.5313 48.3577 19.5313 48.0469V31.6406C19.5313 31.3298 19.4078 31.0318 19.188 30.812C18.9682 30.5922 18.6702 30.4688 18.3594 30.4688ZM14.4531 47.3633C14.2214 47.3633 13.9948 47.2946 13.8021 47.1658C13.6094 47.037 13.4592 46.854 13.3705 46.6399C13.2818 46.4257 13.2586 46.1901 13.3038 45.9628C13.349 45.7355 13.4606 45.5267 13.6245 45.3628C13.7884 45.1989 13.9972 45.0873 14.2245 45.042C14.4518 44.9968 14.6875 45.02 14.9016 45.1087C15.1157 45.1974 15.2987 45.3476 15.4275 45.5403C15.5563 45.7331 15.625 45.9596 15.625 46.1914C15.625 46.5022 15.5015 46.8003 15.2818 47.02C15.062 47.2398 14.7639 47.3633 14.4531 47.3633Z" fill="#0033A1"/>
</svg>

<svg width="50" height="50" fill="none" xmlns="http://www.w3.org/2000/svg"><path d="M21.268 15.783L25 13.822l3.732 1.961a1.172 1.172 0 001.7-1.235l-.713-4.155 3.02-2.943a1.172 1.172 0 00-.65-1.999l-4.172-.606-1.866-3.78a1.172 1.172 0 00-2.102 0l-1.866 3.78-4.172.606a1.172 1.172 0 00-.65 1.999l3.02 2.943-.713 4.155a1.171 1.171 0 001.7 1.235zM49.124 17.812l-3.373-2.53.172-4.212a1.172 1.172 0 00-1.846-1.006L40.63 12.49l-3.954-1.465a1.172 1.172 0 00-1.527 1.444l1.242 4.03-2.614 3.307a1.172 1.172 0 00.901 1.898l4.216.064 2.337 3.508a1.171 1.171 0 002.084-.27l1.364-3.99 4.059-1.139a1.173 1.173 0 00.386-2.065zM15.322 21.704a1.172 1.172 0 00.901-1.898l-2.614-3.308 1.242-4.029a1.172 1.172 0 00-1.527-1.444L9.37 12.49l-3.447-2.426a1.172 1.172 0 00-1.846 1.006l.172 4.212-3.373 2.53a1.172 1.172 0 00.386 2.066l4.06 1.138 1.363 3.99a1.172 1.172 0 002.084.27l2.337-3.508 4.216-.064z" fill="#BE9230"/><path d="M39.453 33.984a2.345 2.345 0 002.27-1.758 2.345 2.345 0 00-2.27-1.757H30.86v-5.371c0-1.461 0-4.374-3.833-4.746a.783.783 0 00-.854.778v5.309c0 .145-.04.286-.116.41l-2.228 3.62h.098l-3.223 2.104v15.055c.475.275 1.014.42 1.563.419H37.89a2.345 2.345 0 002.27-1.758 2.345 2.345 0 00-2.27-1.758h-2.344V43.36h3.125a2.345 2.345 0 002.27-1.758 2.345 2.345 0 00-2.27-1.757h-3.125v-1.172h3.906a2.345 2.345 0 002.27-1.758 2.345 2.345 0 00-2.27-1.758h-3.906v-1.172h3.906zM18.36 30.469h-7.813a1.172 1.172 0 00-1.172 1.172v16.406a1.172 1.172 0 001.172 1.172h7.812a1.172 1.172 0 001.172-1.172V31.64a1.172 1.172 0 00-1.172-1.172zm-3.907 16.894a1.172 1.172 0 110-2.343 1.172 1.172 0 010 2.343z" fill="#0033A1"/></svg>
